img/Logo_gradient.svg

<svg xmlns="http://www.w3.org/2000/svg" xmlns:xlink="http://www.w3.org/1999/xlink" width="999.999" height="1144.143" viewBox="0 0 111 127"><defs><filter id="a" x="1" y="1" width="111" height="127" filterUnits="userSpaceOnUse"><feImage preserveAspectRatio="none" x="1" y="1" width="111" height="127" result="image" xlink:href="data:image/svg+xml;base64,PHN2ZyB4bWxucz0iaHR0cDovL3d3dy53My5vcmcvMjAwMC9zdmciIHhtbG5zOnhsaW5rPSJodHRwOi8vd3d3LnczLm9yZy8xOTk5L3hsaW5rIiB3aWR0aD0iMTExIiBoZWlnaHQ9IjEyNyIgdmlld0JveD0iMCAwIDExMSAxMjciPgogIDxkZWZzPgogICAgPHN0eWxlPgogICAgICAuY2xzLTEgewogICAgICAgIGZpbGw6IHVybCgjbGluZWFyLWdyYWRpZW50KTsKICAgICAgfQogICAgPC9zdHlsZT4KICAgIDxsaW5lYXJHcmFkaWVudCBpZD0ibGluZWFyLWdyYWRpZW50IiB5MT0iNjMuNSIgeDI9IjExMSIgeTI9IjYzLjUiIGdyYWRpZW50VW5pdHM9InVzZXJTcGFjZU9uVXNlIj4KICAgICAgPHN0b3Agb2Zmc2V0PSIwIiBzdG9wLWNvbG9yPSIjODc2MWE4Ii8+CiAgICAgIDxzdG9wIG9mZnNldD0iMSIgc3RvcC1jb2xvcj0iI2YwOTc5MCIvPgogICAgPC9saW5lYXJHcmFkaWVudD4KICA8L2RlZnM+CiAgPHJlY3QgY2xhc3M9ImNscy0xIiB3aWR0aD0iMTExIiBoZWlnaHQ9IjEyNyIvPgo8L3N2Zz4K"/><feComposite result="composite" operator="in" in2="SourceGraphic"/><feBlend result="blend" in2="SourceGraphic"/></filter></defs><path data-name="Ellipse 1 copy 5" d="M44 110a4 4 0 11-4 4 4 4 0 014-4zm-20.5-9a5.5 5.5 0 11-5.5 5.5 5.5 5.5 0 015.5-5.5zM35 87a8 8 0 11-8 8 8 8 0 018-8zm-1.5-16a6.5 6.5 0 11-6.5 6.5 6.5 6.5 0 016.5-6.5zM15 82a4 4 0 11-4 4 4 4 0 014-4zm25-21a4 4 0 11-4 4 4 4 0 014-4zm-18-4a8 8 0 11-8 8 8 8 0 018-8zM6 60a5 5 0 11-5 5 5 5 0 015-5zm27.5-14a6.5 6.5 0 11-6.5 6.5 6.5 6.5 0 016.5-6.5zm-18-5a3.5 3.5 0 11-3.5 3.5 3.5 3.5 0 013.5-3.5zM47 44a4 4 0 11-4 4 4 4 0 014-4zm17-7a4 4 0 11-4 4 4 4 0 014-4zm-13.5-9a6.5 6.5 0 11-6.5 6.5 6.5 6.5 0 016.5-6.5zm-17-1a7.5 7.5 0 11-7.5 7.5 7.5 7.5 0 017.5-7.5zM22 19a5 5 0 11-5 5 5 5 0 015-5zm21.5-7a3.5 3.5 0 11-3.5 3.5 3.5 3.5 0 013.5-3.5zm41 0a3.5 3.5 0 11-3.5 3.5 3.5 3.5 0 013.5-3.5zm-21 3a7.5 7.5 0 11-7.5 7.5 7.5 7.5 0 017.5-7.5zM63 1a5 5 0 11-5 5 5 5 0 015-5zm13.5 26a6.5 6.5 0 11-6.5 6.5 6.5 6.5 0 016.5-6.5zM81 43a4 4 0 11-4 4 4 4 0 014-4zm12.5-16a6.5 6.5 0 11-6.5 6.5 6.5 6.5 0 016.5-6.5zm12-10a5.5 5.5 0 11-5.5 5.5 5.5 5.5 0 015.5-5.5zM65 118a5 5 0 11-5 5 5 5 0 015-5zm20-8a4 4 0 11-4 4 4 4 0 014-4zM65 84a4 4 0 11-4 4 4 4 0 014-4zm-17-6a4 4 0 11-4 4 4 4 0 014-4zm33-1a4 4 0 11-4 4 4 4 0 014-4zM65 99a8 8 0 11-8 8 8 8 0 018-8zm13-11a7 7 0 11-7 7 7 7 0 017-7zm17-1a7 7 0 11-7 7 7 7 0 017-7zm11.5 12a5.5 5.5 0 11-5.5 5.5 5.5 5.5 0 015.5-5.5zm-54-10a6.5 6.5 0 11-6.5 6.5 6.5 6.5 0 016.5-6.5z" transform="translate(-1 -1)" fill="#fff" fill-rule="evenodd" filter="url(#a)"/></svg>

<svg xmlns="http://www.w3.org/2000/svg" xmlns:xlink="http://www.w3.org/1999/xlink" width="999.999" height="1144.143" viewBox="0 0 111 127">
  <defs>
    <style>
      .cls-1 {
        fill: #fff;
        fill-rule: evenodd;
        filter: url(#filter);
      }
    </style>
    <filter id="filter" x="1" y="1" width="111" height="127" filterUnits="userSpaceOnUse">
      <feImage preserveAspectRatio="none" x="1" y="1" width="111" height="127" result="image" xlink:href="data:image/svg+xml;base64,PHN2ZyB4bWxucz0iaHR0cDovL3d3dy53My5vcmcvMjAwMC9zdmciIHhtbG5zOnhsaW5rPSJodHRwOi8vd3d3LnczLm9yZy8xOTk5L3hsaW5rIiB3aWR0aD0iMTExIiBoZWlnaHQ9IjEyNyIgdmlld0JveD0iMCAwIDExMSAxMjciPgogIDxkZWZzPgogICAgPHN0eWxlPgogICAgICAuY2xzLTEgewogICAgICAgIGZpbGw6IHVybCgjbGluZWFyLWdyYWRpZW50KTsKICAgICAgfQogICAgPC9zdHlsZT4KICAgIDxsaW5lYXJHcmFkaWVudCBpZD0ibGluZWFyLWdyYWRpZW50IiB5MT0iNjMuNSIgeDI9IjExMSIgeTI9IjYzLjUiIGdyYWRpZW50VW5pdHM9InVzZXJTcGFjZU9uVXNlIj4KICAgICAgPHN0b3Agb2Zmc2V0PSIwIiBzdG9wLWNvbG9yPSIjODc2MWE4Ii8+CiAgICAgIDxzdG9wIG9mZnNldD0iMSIgc3RvcC1jb2xvcj0iI2YwOTc5MCIvPgogICAgPC9saW5lYXJHcmFkaWVudD4KICA8L2RlZnM+CiAgPHJlY3QgY2xhc3M9ImNscy0xIiB3aWR0aD0iMTExIiBoZWlnaHQ9IjEyNyIvPgo8L3N2Zz4K"/>
      <feComposite result="composite" operator="in" in2="SourceGraphic"/>
      <feBlend result="blend" in2="SourceGraphic"/>
    </filter>
  </defs>
  <path id="Ellipse_1_copy_5" data-name="Ellipse 1 copy 5" class="cls-1" d="M44,110a4,4,0,1,1-4,4A4,4,0,0,1,44,110Zm-20.5-9a5.5,5.5,0,1,1-5.5,5.5A5.5,5.5,0,0,1,23.5,101ZM35,87a8,8,0,1,1-8,8A8,8,0,0,1,35,87ZM33.5,71A6.5,6.5,0,1,1,27,77.5,6.5,6.5,0,0,1,33.5,71ZM15,82a4,4,0,1,1-4,4A4,4,0,0,1,15,82ZM40,61a4,4,0,1,1-4,4A4,4,0,0,1,40,61ZM22,57a8,8,0,1,1-8,8A8,8,0,0,1,22,57ZM6,60a5,5,0,1,1-5,5A5,5,0,0,1,6,60ZM33.5,46A6.5,6.5,0,1,1,27,52.5,6.5,6.5,0,0,1,33.5,46Zm-18-5A3.5,3.5,0,1,1,12,44.5,3.5,3.5,0,0,1,15.5,41ZM47,44a4,4,0,1,1-4,4A4,4,0,0,1,47,44Zm17-7a4,4,0,1,1-4,4A4,4,0,0,1,64,37ZM50.5,28A6.5,6.5,0,1,1,44,34.5,6.5,6.5,0,0,1,50.5,28Zm-17-1A7.5,7.5,0,1,1,26,34.5,7.5,7.5,0,0,1,33.5,27ZM22,19a5,5,0,1,1-5,5A5,5,0,0,1,22,19Zm21.5-7A3.5,3.5,0,1,1,40,15.5,3.5,3.5,0,0,1,43.5,12Zm41,0A3.5,3.5,0,1,1,81,15.5,3.5,3.5,0,0,1,84.5,12Zm-21,3A7.5,7.5,0,1,1,56,22.5,7.5,7.5,0,0,1,63.5,15ZM63,1a5,5,0,1,1-5,5A5,5,0,0,1,63,1ZM76.5,27A6.5,6.5,0,1,1,70,33.5,6.5,6.5,0,0,1,76.5,27ZM81,43a4,4,0,1,1-4,4A4,4,0,0,1,81,43ZM93.5,27A6.5,6.5,0,1,1,87,33.5,6.5,6.5,0,0,1,93.5,27Zm12-10a5.5,5.5,0,1,1-5.5,5.5A5.5,5.5,0,0,1,105.5,17ZM65,118a5,5,0,1,1-5,5A5,5,0,0,1,65,118Zm20-8a4,4,0,1,1-4,4A4,4,0,0,1,85,110ZM65,84a4,4,0,1,1-4,4A4,4,0,0,1,65,84ZM48,78a4,4,0,1,1-4,4A4,4,0,0,1,48,78Zm33-1a4,4,0,1,1-4,4A4,4,0,0,1,81,77ZM65,99a8,8,0,1,1-8,8A8,8,0,0,1,65,99ZM78,88a7,7,0,1,1-7,7A7,7,0,0,1,78,88Zm17-1a7,7,0,1,1-7,7A7,7,0,0,1,95,87Zm11.5,12a5.5,5.5,0,1,1-5.5,5.5A5.5,5.5,0,0,1,106.5,99Zm-54-10A6.5,6.5,0,1,1,46,95.5,6.5,6.5,0,0,1,52.5,89Z" transform="translate(-1 -1)"/>
</svg>
